svgs/solid/binary-circle-check.svg

<svg xmlns="http://www.w3.org/2000/svg" viewBox="0 0 640 512"><!--! Font Awesome Pro 6.1.2 by @fontawesome - https://fontawesome.com License - https://fontawesome.com/license (Commercial License) Copyright 2022 Fonticons, Inc. --><path d="M322.7 6.04C331.1 12.05 336 21.71 336 32V160H352C369.7 160 384 174.3 384 192C384 209.7 369.7 224 352 224H256C238.3 224 224 209.7 224 192C224 174.3 238.3 160 256 160H272V76.4L266.1 78.36C249.4 83.95 231.2 74.89 225.7 58.12C220.1 41.35 229.1 23.23 245.9 17.64L293.9 1.642C303.6-1.61 314.4 .0261 322.7 6.04H322.7zM98.72 294C107.1 300.1 112 309.7 112 320V448H128C145.7 448 160 462.3 160 480C160 497.7 145.7 512 128 512H32.01C14.34 512 .0086 497.7 .0086 480C.0086 462.3 14.34 448 32.01 448H48.01V364.4L42.13 366.4C25.36 371.9 7.24 362.9 1.651 346.1C-3.938 329.4 5.123 311.2 21.89 305.6L69.89 289.6C79.65 286.4 90.38 288 98.72 294L98.72 294zM128 .0001C163.4 .0001 192 28.65 192 64V160C192 195.3 163.4 224 128 224H64.01C28.66 224 .0086 195.3 .0086 160V64C.0086 28.65 28.66 .0001 64.01 .0001H128zM64.01 160H128V64H64.01V160zM192 352C192 316.7 220.7 288 256 288H320C323.4 288 326.7 288.3 329.9 288.8C320.6 308.2 314.6 329.5 312.7 352H256V448L330.3 448C338.7 465.5 349.8 481.4 363.1 495.3C351.8 505.7 336.6 512 320 512H256C220.7 512 192 483.3 192 448L192 352zM640 368C640 447.5 575.5 512 496 512C416.5 512 352 447.5 352 368C352 288.5 416.5 223.1 496 223.1C575.5 223.1 640 288.5 640 368zM540.7 324.7L480 385.4L451.3 356.7C445.1 350.4 434.9 350.4 428.7 356.7C422.4 362.9 422.4 373.1 428.7 379.3L468.7 419.3C474.9 425.6 485.1 425.6 491.3 419.3L563.3 347.3C569.6 341.1 569.6 330.9 563.3 324.7C557.1 318.4 546.9 318.4 540.7 324.7H540.7z"/></svg>

<svg xmlns="http://www.w3.org/2000/svg" viewBox="0 0 640 512"><!--! Font Awesome Pro 6.2.0 by @fontawesome - https://fontawesome.com License - https://fontawesome.com/license (Commercial License) Copyright 2022 Fonticons, Inc. --><path d="M322.7 6c8.3 6 13.3 15.7 13.3 26V160h16c17.7 0 32 14.3 32 32s-14.3 32-32 32H304 256c-17.7 0-32-14.3-32-32s14.3-32 32-32h16V76.4l-5.9 2c-16.8 5.6-34.9-3.5-40.5-20.2s3.5-34.9 20.2-40.5l48-16C303.6-1.6 314.4 0 322.7 6zM98.7 294c8.3 6 13.3 15.7 13.3 26V448h16c17.7 0 32 14.3 32 32s-14.3 32-32 32H80 32c-17.7 0-32-14.3-32-32s14.3-32 32-32H48V364.4l-5.9 2c-16.8 5.6-34.9-3.5-40.5-20.2s3.5-34.9 20.2-40.5l48-16c9.8-3.3 20.5-1.6 28.8 4.4zM64 0h64c35.3 0 64 28.7 64 64v96c0 35.3-28.7 64-64 64H64c-35.3 0-64-28.7-64-64V64C0 28.7 28.7 0 64 0zm0 64v96h64V64H64zM192 352c0-35.3 28.7-64 64-64h64c6.2 0 12.2 .9 17.9 2.5c-11.2 22.9-17.6 48.6-17.9 75.7V352H256v96h64v0h19.2c7.8 15.3 17.8 29.3 29.5 41.5C357 503.3 339.5 512 320 512H256c-35.3 0-64-28.7-64-64V352zm128.7 32H320V369.8c0 4.8 .3 9.5 .7 14.2zM640 368c0 79.5-64.5 144-144 144s-144-64.5-144-144s64.5-144 144-144s144 64.5 144 144zm-76.7-43.3c-6.2-6.2-16.4-6.2-22.6 0L480 385.4l-28.7-28.7c-6.2-6.2-16.4-6.2-22.6 0s-6.2 16.4 0 22.6l40 40c6.2 6.2 16.4 6.2 22.6 0l72-72c6.2-6.2 6.2-16.4 0-22.6z"/></svg>
